X:1
T:Title
%%score { ( 1 3 ) | 2 }
L:1/8
M:3/4
K:Db
V:1 treble nm="Grand Piano"
V:3 treble 
V:2 bass 
V:1
 z2 z[Q:1/4=100] [FA] [FA][DF] | [EG]3 [GB] [GB][FA] | [FA]3 [Fd] [Gc][GB] | [Gc]3 [GB] [FA][EG] | %4
[M:3/8] [DF]3 | [FA][FA][DF] |[M:3/4] [EG]3 [GB] [GB][FA] | [FA]3 [Fd] [Af][Ad] | %8
[M:17/16] [Bd]/-[Bd]/-[Bd]/-[Bd]/-[Bd]/-[Bd]-<[Bd][GB][FA]3/2[Gc]3/2 |[M:9/16] [Fd]4- [Fd]/ | %10
[M:3/8] AA[A,EG] |[M:3/4] A,A, A,d dd | [Fd]4 z2 |[M:7/8] [Bd]3 BA3/2c3/2 |[M:9/16] [Fd]4- [Fd]/ |] %15
V:2
 z2 z [D,D] [D,D][D,A,] | [D,A,]3 [D,C] [D,D][D,D] | [D,D]3 [D,A,] [A,,A,][A,,A,] | %3
 [A,,A,]3 [A,,A,] [A,,A,][A,,A,] |[M:3/8] [D,A,]3 | [D,D][D,D][D,A,] | %6
[M:3/4] [D,A,]3 [D,C] [D,D][D,D] | [D,D]3 [D,A,] [D,A,][F,D] | %8
[M:17/16] [G,D]/-[G,D]/-[G,D]/-[G,D]/-[G,D]/-[G,D]-<[G,D][G,D][A,D]3/2[A,,A,]3/2 | %9
[M:9/16] [D,A,]4- [D,A,]/ |[M:3/8][K:treble] FF[K:bass]A,, | %11
[M:3/4] D,D, D,[K:treble]F F[K:bass][G,B,G] | [D,A,]D, D,[D,A,] [D,A,][F,D] | %13
[M:7/8] [G,D]3[K:treble] [G,DG][A,DF]3/2[A,G]3/2 |[M:9/16][K:bass] [D,A,]4- [D,A,]/ |] %15
V:3
 x6 | x6 | x6 | x6 |[M:3/8] x3 | x3 |[M:3/4] x6 | x6 |[M:17/16] x17/2 |[M:9/16] x9/2 |[M:3/8] x3 | %11
[M:3/4] [DF]4 z2 | z A, A,[Fd] [Af][Ad] |[M:7/8] x7 |[M:9/16] x9/2 |] %15

